icons/type-icons/icons/application-x-kvtml.svg

<?xml version="1.0" encoding="UTF-8"?>
<svg width="22" height="22" version="1.1" xmlns="http://www.w3.org/2000/svg">
 <g id="layer1" transform="translate(-326 -534.36)" fill="#6c7a89">
  <path id="rect5669" transform="translate(326 534.36)" d="m3 3v16h16v-16h-16zm1 1h14v14h-14v-14z" stroke-width="2"/>
  <rect id="rect4151" x="332" y="540.36" width="10" height="2"/>
  <rect id="rect4153" x="332" y="544.36" width="4" height="1"/>
  <rect id="rect4153-4" x="338" y="544.36" width="4" height="1"/>
  <rect id="rect4153-2" x="332" y="547.36" width="4" height="1"/>
  <rect id="rect4153-4-4" x="338" y="547.36" width="4" height="1"/>
  <rect id="rect4153-1" x="332" y="550.36" width="4" height="1"/>
  <rect id="rect4153-4-9" x="338" y="550.36" width="4" height="1"/>
 </g>
</svg>

<?xml version="1.0" encoding="UTF-8" standalone="no"?>

<!-- Created with Inkscape (http://www.inkscape.org/) -->
<svg width="22" version="1.1" xmlns="http://www.w3.org/2000/svg" height="22" xmlns:inkscape="http://www.inkscape.org/namespaces/inkscape">
 <defs id="defs3871"/>
 <metadata id="metadata3874"/>
 <g inkscape:label="Capa 1" inkscape:groupmode="layer" id="layer1" transform="matrix(1 0 0 1 -326 -534.3622)">
  <path style="fill:#6c7a89;stroke-width:2" id="rect5669" d="M 3 3 L 3 19 L 19 19 L 19 3 L 3 3 z M 4 4 L 10 4 L 11 4 L 12 4 L 18 4 L 18 18 L 4 18 L 4 4 z " transform="matrix(1 0 0 1 326 534.3622)"/>
  <rect width="10" x="332" y="540.36218" height="2" style="fill:#6c7a89" id="rect4151"/>
  <rect width="4" x="332" y="544.36218" height="1" style="fill:#6c7a89" id="rect4153"/>
  <rect width="4" x="338" y="544.36218" height="1" style="fill:#6c7a89" id="rect4153-4"/>
  <rect width="4" x="332" y="547.36218" height="1" style="fill:#6c7a89" id="rect4153-2"/>
  <rect width="4" x="338" y="547.36218" height="1" style="fill:#6c7a89" id="rect4153-4-4"/>
  <rect width="4" x="332" y="550.36218" height="1" style="fill:#6c7a89" id="rect4153-1"/>
  <rect width="4" x="338" y="550.36218" height="1" style="fill:#6c7a89" id="rect4153-4-9"/>
 </g>
</svg>
